X: 96
T: Past One a Clock
T: Longways for as many as will.
%R: jig
B: Daniel Wright "Wright's Compleat Collection of Celebrated Country Dances" 1740 p.48
S: http://library.efdss.org/cgi-bin/dancebooks.cgi
Z: 2014 John Chambers <jc:trillian.mit.edu>
N: Repeats added to fit the tune to the dance.
M: 6/4
L: 1/4
K: G
% - - - - - - - - - - - - - - - - - - - - - - - - -
|:\
DGG G2B | ABG E2D |\
E/F/GG B/c/de | {B}A2G G3 ::\
=f>g(=f/g/) e2d | def ged |
dgg g2e | dBG GED |\
=f>g(=f/g/) e2g | dBG GED |\
(E/F/)GG (B/c/)de | {B}A2G G3 :|
% - - - - - - - - - - - - - - - - - - - - - - - - -
%%begintext align
%% The 1st Man turn the 2d Wo. .| then the
%% 2d Man turn the 1st Wo. :| then the 1st Cu.
%% cast off and lead thro' the 3d Cu. and
%% cast up into the 2d Cu. Place and turn
%% Hands .| then lead thro' the 2d Cu. and cast
%% off, and Right and Left quite round :|
%%endtext
% - - - - - - - - - - - - - - - - - - - - - - - - -
%%sep 2 4 300
